icons/extensions/json.svg

<?xml version="1.0" encoding="UTF-8"?>
<svg width="42px" height="42px" viewBox="0 0 42 42" version="1.1" xmlns="http://www.w3.org/2000/svg" xmlns:xlink="http://www.w3.org/1999/xlink">
    <!-- Generator: Sketch 44.1 (41455) - http://www.bohemiancoding.com/sketch -->
    <desc>Created with Sketch.</desc>
    <defs>
        <path d="M0,2.00494659 C0,0.897645164 0.889763236,0 2.00359486,0 L24.004543,0 C24.5543187,0 25.3127724,0.312772393 25.7057732,0.70577316 L29.2942268,4.29422684 C29.6840146,4.68401459 30,5.45092539 30,5.99477117 L30,22.0025781 C30,23.1057238 29.1021596,24 28.008383,24 L1.99161703,24 C0.891677316,24 0,23.1029738 0,21.9950534 L0,2.00494659 Z" id="path-1"></path>
        <linearGradient x1="48.2877604%" y1="50%" x2="100%" y2="97.5925022%" id="linearGradient-3">
            <stop stop-color="#000000" stop-opacity="0" offset="0%"></stop>
            <stop stop-color="#000000" offset="100%"></stop>
        </linearGradient>
        <path d="M23.203125,3.203125 C22.8147998,2.81479979 22.050554,2.45006155 21.5041712,2.38935236 L0,0 L25,0 L30,5 L30,24 L3.49498593,21.5904533 C2.94547037,21.5404973 2.56686896,21.0586649 2.64889956,20.5172629 L4.85110044,5.98273706 C4.9333354,5.43998637 5,5.44994876 5,6.00684547 L5,17.9931545 C5,18.5492199 5.45530558,19 5.99180311,19 L24.0081969,19 C24.5559546,19 25.073553,18.558682 25.1636684,18.0179896 L26.8363316,7.98201036 C26.9267232,7.43966102 26.6763711,6.6763711 26.296875,6.296875 L23.203125,3.203125 Z" id="path-4"></path>
        <linearGradient x1="0%" y1="0%" x2="48.4830729%" y2="50%" id="linearGradient-5">
            <stop stop-color="#000000" offset="0%"></stop>
            <stop stop-color="#000000" stop-opacity="0" offset="100%"></stop>
        </linearGradient>
        <path d="M23.203125,3.203125 C22.8147998,2.81479979 22.050554,2.45006155 21.5041712,2.38935236 L0,0 L0,24 L30,24 L3.49498593,21.5904533 C2.94547037,21.5404973 2.56686896,21.0586649 2.64889956,20.5172629 L4.85110044,5.98273706 C4.9333354,5.43998637 5.44892021,5 6.00748397,5 L18.992516,5 C19.5489341,5 20.3127724,5.31277239 20.7057732,5.70577316 L24.2942268,9.29422684 C24.6840146,9.68401459 25,10.4463114 25,10.9975446 L25,18.0024554 C25,18.553384 25.073553,18.558682 25.1636684,18.0179896 L26.8363316,7.98201036 C26.9267232,7.43966102 26.6763711,6.6763711 26.296875,6.296875 L23.203125,3.203125 Z" id="path-6"></path>
    </defs>
    <g id="扩展名-(icons/extensions-5-10)" stroke="none" stroke-width="1" fill="none" fill-rule="evenodd">
        <g id="JSON">
            <g id="Path-10-+-Path-9-Mask" transform="translate(6.000000, 9.000000)">
                <mask id="mask-2" fill="white">
                    <use xlink:href="#path-1"></use>
                </mask>
                <g id="Mask"></g>
                <path d="M5,6.00684547 C5,5.45078007 5.44892021,5 6.00748397,5 L18.992516,5 C19.5489341,5 20.3127724,5.31277239 20.7057732,5.70577316 L24.2942268,9.29422684 C24.6840146,9.68401459 25,10.4463114 25,10.9975446 L25,18.0024554 C25,18.553384 24.5446944,19 24.0081969,19 L5.99180311,19 C5.44404538,19 5,18.5500512 5,17.9931545 L5,6.00684547 Z" id="Rectangle-3" fill="#121212" mask="url(#mask-2)"></path>
                <g id="Path-10" mask="url(#mask-2)">
                    <use fill="#97C4FF" xlink:href="#path-4"></use>
                    <use fill-opacity="0.5" fill="url(#linearGradient-3)" xlink:href="#path-4"></use>
                </g>
                <g id="Path-9" mask="url(#mask-2)">
                    <use fill="#97C4FF" xlink:href="#path-6"></use>
                    <use fill-opacity="0.5" fill="url(#linearGradient-5)" xlink:href="#path-6"></use>
                </g>
            </g>
        </g>
    </g>
</svg>

<svg viewBox="0 0 42 42" xmlns="http://www.w3.org/2000/svg" xmlns:xlink="http://www.w3.org/1999/xlink"><defs><path d="M0 2.005A2 2 0 0 1 2.004 0h22c.55 0 1.309.313 1.702.706l3.588 3.588c.39.39.706 1.157.706 1.7v16.009A1.998 1.998 0 0 1 28.008 24H1.992C.892 24 0 23.103 0 21.995V2.005z" id="a"/><linearGradient x1="48.288%" y1="50%" y2="97.593%" id="d"><stop stop-opacity="0" offset="0%"/><stop offset="100%"/></linearGradient><path d="M23.203 3.203c-.388-.388-1.152-.753-1.699-.814L0 0h25l5 5v19L3.495 21.59a.928.928 0 0 1-.846-1.073L4.85 5.983C4.933 5.44 5 5.45 5 6.007v11.986C5 18.55 5.455 19 5.992 19h18.016c.548 0 1.066-.441 1.156-.982l1.672-10.036c.09-.542-.16-1.306-.54-1.685l-3.093-3.094z" id="c"/><linearGradient x1="0%" y1="0%" x2="48.483%" y2="50%" id="f"><stop offset="0%"/><stop stop-opacity="0" offset="100%"/></linearGradient><path d="M23.203 3.203c-.388-.388-1.152-.753-1.699-.814L0 0v24h30L3.495 21.59a.928.928 0 0 1-.846-1.073L4.85 5.983C4.933 5.44 5.45 5 6.007 5h12.986c.556 0 1.32.313 1.713.706l3.588 3.588c.39.39.706 1.152.706 1.704v7.004c0 .551.074.557.164.016l1.672-10.036c.09-.542-.16-1.306-.54-1.685l-3.093-3.094z" id="e"/></defs><g transform="translate(6 9)" fill="none" fill-rule="evenodd"><mask id="b" fill="#fff"><use xlink:href="#a"/></mask><path d="M5 6.007C5 5.45 5.449 5 6.007 5h12.986c.556 0 1.32.313 1.713.706l3.588 3.588c.39.39.706 1.152.706 1.704v7.004c0 .551-.455.998-.992.998H5.992A.999.999 0 0 1 5 17.993V6.007z" fill="#121212" mask="url(#b)"/><g mask="url(#b)"><use fill="#97C4FF" xlink:href="#c"/><use fill-opacity=".5" fill="url(#d)" xlink:href="#c"/></g><g mask="url(#b)"><use fill="#97C4FF" xlink:href="#e"/><use fill-opacity=".5" fill="url(#f)" xlink:href="#e"/></g></g></svg>
